material/.icons/material/table-tennis.svg

<svg xmlns="http://www.w3.org/2000/svg" viewBox="0 0 24 24"><path d="M18.5 14c1.4 0 2.5 1.1 2.5 2.5S19.9 19 18.5 19 16 17.9 16 16.5s1.1-2.5 2.5-2.5M7 15s1 1 1 2v3.5c0 .8.7 1.5 1.5 1.5s1.5-.7 1.5-1.5V17c0-1 1-2 1-2H7m1-1h3s5 0 5-5-4-7-6.5-7S3 4 3 9s5 5 5 5z"/></svg>

<?xml version="1.0" encoding="UTF-8"?><!DOCTYPE svg PUBLIC "-//W3C//DTD SVG 1.1//EN" "http://www.w3.org/Graphics/SVG/1.1/DTD/svg11.dtd"><svg xmlns="http://www.w3.org/2000/svg" xmlns:xlink="http://www.w3.org/1999/xlink" version="1.1" id="mdi-table-tennis" width="24" height="24" viewBox="0 0 24 24"><path d="M18.5,14C19.9,14 21,15.1 21,16.5C21,17.9 19.9,19 18.5,19C17.1,19 16,17.9 16,16.5C16,15.1 17.1,14 18.5,14M7,15C7,15 8,16 8,17V20.5C8,21.3 8.7,22 9.5,22C10.3,22 11,21.3 11,20.5V17C11,16 12,15 12,15H7M8,14H11C11,14 16,14 16,9C16,4 12,2 9.5,2C7,2 3,4 3,9C3,14 8,14 8,14Z" /></svg>
